svg/s/IM.svg

<svg width="16" height="12" viewBox="0 0 16 12" fill="none" xmlns="http://www.w3.org/2000/svg">
<mask id="mask0" mask-type="alpha" maskUnits="userSpaceOnUse" x="0" y="0" width="16" height="12">
<rect width="16" height="12" fill="white"/>
</mask>
<g mask="url(#mask0)">
<path fill-rule="evenodd" clip-rule="evenodd" d="M0 0V12H16V0H0Z" fill="#E31D1C"/>
<mask id="mask1" mask-type="alpha" maskUnits="userSpaceOnUse" x="0" y="0" width="16" height="12">
<path fill-rule="evenodd" clip-rule="evenodd" d="M0 0V12H16V0H0Z" fill="white"/>
</mask>
<g mask="url(#mask1)">
<path fill-rule="evenodd" clip-rule="evenodd" d="M3.04676 2.07048C3.04291 2.02422 3.09827 2.00179 3.12958 2.03606C3.35414 2.28189 3.94767 2.89388 4.29091 2.89388C4.72041 2.89388 6.40721 1.47255 6.90578 1.70409C7.40436 1.93563 8.41381 4.35644 8.41381 4.35644L7.75599 5.18157L6.90578 4.71776L6.67048 3.17155C6.67048 3.17155 5.10857 3.9542 4.29091 3.64866L3.83127 3.81631C3.83127 3.81631 3.38862 2.93981 3.21431 2.67172C3.09898 2.49434 3.05996 2.22943 3.04676 2.07048Z" fill="#F7FCFF"/>
<path fill-rule="evenodd" clip-rule="evenodd" d="M4.00001 4.13757L3.41222 4.44659L3.52448 3.79208L3.04895 3.32856L3.70611 3.23306L4.00001 2.63757L4.2939 3.23306L4.95106 3.32856L4.47553 3.79208L4.58779 4.44659L4.00001 4.13757Z" fill="#FECA00"/>
<path fill-rule="evenodd" clip-rule="evenodd" d="M6.56569 1.76829C6.57321 1.67434 6.65165 1.60193 6.7459 1.60193C6.85142 1.60193 6.93451 1.69194 6.9261 1.79713L6.81552 3.17919C6.80801 3.27314 6.72957 3.34555 6.63532 3.34555C6.52979 3.34555 6.4467 3.25554 6.45512 3.15035L6.56569 1.76829Z" fill="#FECA00"/>
<path fill-rule="evenodd" clip-rule="evenodd" d="M12.6101 2.5517C12.6513 2.57296 12.641 2.63179 12.5954 2.64018C12.2679 2.70035 11.4344 2.87939 11.2525 3.17047C11.0249 3.53471 11.3364 5.71838 10.8758 6.0185C10.4153 6.31862 7.82736 5.89185 7.82736 5.89185L7.4762 4.89673L8.32008 4.4215L9.80103 5.01152C9.80103 5.01152 9.94022 3.33286 10.6326 2.80135L10.7138 2.29185C10.7138 2.29185 11.6917 2.38095 12.0114 2.37519C12.2229 2.37138 12.4683 2.47867 12.6101 2.5517Z" fill="#F7FCFF"/>
<path fill-rule="evenodd" clip-rule="evenodd" d="M10.2526 2.42817L10.302 1.76594L10.7976 2.20798L11.4426 2.05034L11.1754 2.65825L11.5246 3.22305L10.8639 3.15672L10.4347 3.66342L10.2936 3.01452L9.67903 2.76288L10.2526 2.42817Z" fill="#FECA00"/>
<path fill-rule="evenodd" clip-rule="evenodd" d="M10.9767 5.59911C11.0572 5.65776 11.0805 5.76764 11.0309 5.85397C10.9719 5.95658 10.8358 5.98338 10.7422 5.9108L9.78032 5.1643C9.71933 5.11696 9.69614 5.03549 9.72308 4.96313C9.7639 4.85349 9.89809 4.81311 9.99264 4.88201L10.9767 5.59911Z" fill="#FECA00"/>
<path fill-rule="evenodd" clip-rule="evenodd" d="M7.43125 10.4918C7.39221 10.5169 7.34642 10.4785 7.36198 10.4348C7.47361 10.1211 7.73532 9.30976 7.57418 9.00669C7.37254 8.62746 5.32568 7.80538 5.29605 7.25646C5.26641 6.70755 6.92996 4.67975 6.92996 4.67975L7.96733 4.87319L7.95696 5.84163L6.61135 6.82755C6.61135 6.82755 8.12732 7.77874 8.24142 8.64414L8.60443 8.97947C8.60443 8.97947 8.03833 9.78179 7.88346 10.0616C7.78098 10.2467 7.5654 10.4055 7.43125 10.4918Z" fill="#F7FCFF"/>
<path fill-rule="evenodd" clip-rule="evenodd" d="M8.94607 8.45716L9.49487 8.83107L8.86427 9.03922L8.67825 9.6767L8.28541 9.14129L7.62165 9.16137L8.00947 8.62231L7.78526 7.99724L8.41778 8.19949L8.94297 7.7931L8.94607 8.45716Z" fill="#FECA00"/>
<path fill-rule="evenodd" clip-rule="evenodd" d="M5.55181 7.47812C5.44027 7.5209 5.31609 7.45867 5.28359 7.34372C5.25515 7.24313 5.30771 7.13737 5.40507 7.09929L6.41411 6.70463C6.50688 6.66835 6.61233 6.70339 6.66493 6.78798C6.73349 6.89823 6.68463 7.04364 6.56342 7.09013L5.55181 7.47812Z" fill="#FECA00"/>
<path d="M6.83129 4.88244C6.76906 4.8607 6.73582 4.7914 6.75705 4.72765C6.77827 4.66391 6.87797 4.55743 6.9402 4.57917L7.80809 4.88244C7.85287 4.89809 7.88435 4.93942 7.88829 4.98772L7.9659 5.93964C7.97137 6.00676 7.87361 6.06106 7.80809 6.06666C7.74257 6.07227 7.68502 6.0224 7.67955 5.95528L7.60768 5.13666L6.83129 4.88244Z" fill="#FECA00"/>
<path d="M8.34029 4.38368C8.39216 4.3423 8.48479 4.39026 8.52519 4.44341C8.56558 4.49655 8.55627 4.57317 8.5044 4.61455L7.90319 5.23076C7.85131 5.27214 7.73464 5.19142 7.69425 5.13828C7.65386 5.08514 7.64237 4.94038 7.69425 4.899L8.34029 4.38368Z" fill="#FECA00"/>
</g>
</g>
</svg>

<svg width="16" height="12" fill="none" xmlns="http://www.w3.org/2000/svg">
  <mask id="a" maskUnits="userSpaceOnUse" x="0" y="0" width="16" height="12">
    <path fill="#fff" d="M0 0h16v12H0z"/>
  </mask>
  <g mask="url(#a)">
    <path fill-rule="evenodd" clip-rule="evenodd" d="M0 0v12h16V0H0z" fill="#E31D1C"/>
    <mask id="b" maskUnits="userSpaceOnUse" x="0" y="0" width="16" height="12">
      <path fill-rule="evenodd" clip-rule="evenodd" d="M0 0v12h16V0H0z" fill="#fff"/>
    </mask>
    <g mask="url(#b)">
      <path fill-rule="evenodd" clip-rule="evenodd" d="M3.047 2.07c-.004-.046.051-.068.083-.034.224.246.818.858 1.16.858.43 0 2.117-1.421 2.616-1.19.498.232 1.508 2.652 1.508 2.652l-.658.826-.85-.464-.236-1.546s-1.561.782-2.38.477l-.459.167s-.442-.876-.617-1.144c-.115-.178-.154-.443-.167-.602z" fill="#F7FCFF"/>
      <path fill-rule="evenodd" clip-rule="evenodd" d="M4 4.138l-.588.309.112-.655-.475-.463.657-.096L4 2.638l.294.595.657.096-.475.463.112.655L4 4.137zm2.566-2.37a.18.18 0 01.36.03l-.11 1.381a.18.18 0 11-.36-.029l.11-1.382z" fill="#FECA00"/>
      <path fill-rule="evenodd" clip-rule="evenodd" d="M12.61 2.552c.041.021.031.08-.015.088-.327.06-1.16.24-1.343.53-.227.365.084 2.548-.376 2.849-.46.3-3.049-.127-3.049-.127l-.35-.995.843-.475 1.481.59s.14-1.68.832-2.21l.08-.51s.979.089 1.298.083c.212-.004.457.104.6.177z" fill="#F7FCFF"/>
      <path fill-rule="evenodd" clip-rule="evenodd" d="M10.252 2.428l.05-.662.495.442.646-.158-.268.608.35.565-.661-.066-.43.506-.14-.648-.615-.252.573-.335zm.725 3.172a.195.195 0 11-.235.31l-.962-.746a.177.177 0 01.213-.282l.984.717z" fill="#FECA00"/>
      <path fill-rule="evenodd" clip-rule="evenodd" d="M7.431 10.492c-.039.025-.085-.013-.07-.057.113-.314.374-1.125.213-1.428-.202-.38-2.248-1.202-2.278-1.75-.03-.55 1.634-2.577 1.634-2.577l1.037.193-.01.969-1.346.986s1.516.95 1.63 1.816l.363.336s-.566.802-.72 1.082c-.103.185-.319.344-.453.43z" fill="#F7FCFF"/>
      <path fill-rule="evenodd" clip-rule="evenodd" d="M8.946 8.457l.549.374-.63.208-.187.638-.393-.536-.663.02.387-.539-.224-.625.633.202.525-.406.003.664zm-3.394-.979a.203.203 0 01-.147-.379l1.009-.394a.207.207 0 11.15.385l-1.012.388z" fill="#FECA00"/>
      <path d="M6.831 4.882a.123.123 0 01-.074-.154c.021-.064.12-.17.183-.149l.868.303a.121.121 0 01.08.106l.078.952c.005.067-.092.121-.158.127a.12.12 0 01-.128-.112l-.072-.818-.777-.255z" fill="#FECA00"/>
      <path d="M8.34 4.384c.052-.042.145.006.185.06.04.053.031.13-.02.17l-.602.617c-.052.041-.168-.04-.209-.093-.04-.053-.052-.198 0-.239l.646-.515z" fill="#FECA00"/>
    </g>
  </g>
</svg>
